Origami/16x16/apps/the-witcher-2.svg

<svg width="16" height="16" version="1.1" viewBox="0 0 16 16" xmlns="http://www.w3.org/2000/svg">
 <circle cx="8" cy="8" r="8" style="fill:#c44652"/>
 <path d="m4 1.5v1.9824219l-0.4550781 0.7070312c-0.9553982 0.5518786-1.8178591 0.7216698-2.5449219 1.3105469l1.5 1-2.5 1.5 3 0.5-2 2.5 2-0.482422v0.982422l2-0.5-0.5 1 2.7382812-1.111328 0.7617188 0.111328 0.7617188-0.111328 2.7382812 1.111328-0.5-1 2 0.5v-0.982422l2 0.482422-2-2.5 3-0.5-2.5-1.5 1.5-1c-0.727063-0.5888771-1.589524-0.7586683-2.544922-1.3105469l-0.455078-0.7070312v-1.9824219l-2 1.2402344v-0.7695313l-1 0.7695313v-0.7695313l-1 0.7695313-1-0.7695313v0.7695313l-1-0.7695313v0.7695313l-2-1.2402344z" style="fill:#393939"/>
 <path d="m2.5 1.0000003-0.4980084 0.5974247c-0.027749 0.9073824 0.2383205 1.7134385 0.5578453 2.5017161 0.5555803 1.3135699 2.0568167 1.8014118 2.9626738 2.6092524 0.5747173 0.5249292 0.7295336 0.9877952 0.8117664 1.4502482 0.095256 0.5356917 0.1527306 1.1164474 0.2125125 2.0103343 0.1999073 1.163244 0.3088405 3.058621 0.4586205 3.69059 0.1372144 0.146653 0.9945895 0.140395 0.9945895 0.140395s0.8573751 0.0062 0.9945896-0.140395c0.1497799-0.631969 0.2587131-2.527346 0.4586205-3.69059 0.0597823-0.8938869 0.1172565-1.4746426 0.2125124-2.0103343 0.0822324-0.462453 0.2370492-0.925319 0.8117669-1.4502482 0.905856-0.8078406 2.407093-1.2956825 2.962673-2.6092524 0.319525-0.7882776 0.585595-1.5943337 0.557846-2.5017161l-0.498008-0.5974247v0.5959312l-2.49748 1.424605-3.0025204-0.041073-3.0025197 0.041073-2.4974799-1.424605z" style="fill:#505050"/>
 <path d="M 5.089304,4 A 1.1119557,1.4364671 0 0 0 5,4.563533 1.1119557,1.4364671 0 0 0 6.1119556,6 1.1119557,1.4364671 0 0 0 7,5.4250759 Z" style="fill:#eb6b00"/>
 <path d="m9.2000701 8.4026294c-0.4166069 0.1599837-0.7721098 0.4142564-1.2000705 0.3823519v0.00821c-0.4279607 0.0319078-0.7834635-0.2223637-1.2000703-0.3823474l0.4101804 4.1707711c0.031254 0.312021 0.038278 0.353713 0.3109555 0.382351 0.178188 0.02862 0.3149892 0.03947 0.4789344 0.0351v-0.0082c0.1639453 0.0044 0.3007465-0.0065 0.4789346-0.0351 0.2726787-0.02863 0.279702-0.06959 0.3109554-0.381605z" style="opacity:.4"/>
 <path d="m7.5999761 11c-0.1736469 0.136771-0.325353 0.778301-0.4492451 0.978216l0.059379 0.603399c0.031254 0.312021 0.038278 0.353713 0.3109555 0.382351 0.057785 0.0092 0.1071858 0.01378 0.1586033 0.01941h0.5726894c0.071595-0.0059 0.1440307-0.01437 0.2265761-0.02763 0.2726787-0.02863 0.279702-0.06959 0.3109554-0.381606l0.058598-0.596678c-0.1237951-0.199559-0.2750692-0.840888-0.4484646-0.977462v1.026352h-0.800047z" style="fill:#ffffff"/>
 <path d="m9.2000701 7.9955194s-0.7669554 0.5032024-1.2000701 0.5044806-1.1985082-0.4955206-1.1985082-0.4955206c0.0464074 0.5373313 0.3502869 1.6424995 0.7984843 1.9955206v-1h0.800047v1c0.4506493-0.3549531 0.7562307-1.4653312 0.800047-2.0044806z" style="fill:#ffffff"/>
 <path d="m 10.910696,4 a 1.1119557,1.4364671 0 0 1 0.0893,0.563533 A 1.1119557,1.4364671 0 0 1 9.8880444,6 1.1119557,1.4364671 0 0 1 9,5.4250759 Z" style="fill:#eb6b00"/>
</svg>

<svg xmlns="http://www.w3.org/2000/svg" width="16" height="16" version="1.1" viewBox="0 0 16 16">
 <circle style="fill:#c44652" cx="8" cy="8" r="8"/>
 <path style="fill:#393939" d="M 4 1.5 L 4 3.4824219 L 3.5449219 4.1894531 C 2.5895237 4.7413317 1.7270628 4.9111229 1 5.5 L 2.5 6.5 L 0 8 L 3 8.5 L 1 11 L 3 10.517578 L 3 11.5 L 5 11 L 4.5 12 L 7.2382812 10.888672 L 8 11 L 8.7617188 10.888672 L 11.5 12 L 11 11 L 13 11.5 L 13 10.517578 L 15 11 L 13 8.5 L 16 8 L 13.5 6.5 L 15 5.5 C 14.272937 4.9111229 13.410476 4.7413317 12.455078 4.1894531 L 12 3.4824219 L 12 1.5 L 10 2.7402344 L 10 1.9707031 L 9 2.7402344 L 9 1.9707031 L 8 2.7402344 L 7 1.9707031 L 7 2.7402344 L 6 1.9707031 L 6 2.7402344 L 4 1.5 z"/>
 <path style="fill:#505050" d="M 2.5,1.0000003 2.0019916,1.597425 c -0.027749,0.9073824 0.2383205,1.7134385 0.5578453,2.5017161 0.5555803,1.3135699 2.0568167,1.8014118 2.9626738,2.6092524 0.5747173,0.5249292 0.7295336,0.9877952 0.8117664,1.4502482 0.095256,0.5356917 0.1527306,1.1164474 0.2125125,2.0103343 0.1999073,1.163244 0.3088405,3.058621 0.4586205,3.69059 0.1372144,0.146653 0.9945895,0.140395 0.9945895,0.140395 0,0 0.8573751,0.0062 0.9945896,-0.140395 C 9.1443691,13.227597 9.2533023,11.33222 9.4532097,10.168976 9.512992,9.2750891 9.5704662,8.6943334 9.6657221,8.1586417 9.7479545,7.6961887 9.9027713,7.2333227 10.477489,6.7083935 11.383345,5.9005529 12.884582,5.412711 13.440162,4.0991411 13.759687,3.3108635 14.025757,2.5048074 13.998008,1.597425 L 13.5,1.0000003 V 1.5959315 L 11.00252,3.0205365 7.9999996,2.9794635 4.9974799,3.0205365 2.5,1.5959315 Z"/>
 <path style="fill:#eb6b00" d="M 5.089304,4 A 1.1119557,1.4364671 0 0 0 5,4.563533 1.1119557,1.4364671 0 0 0 6.1119556,6 1.1119557,1.4364671 0 0 0 7,5.4250759 Z"/>
 <path style="opacity:0.4" d="M 9.2000701,8.4026294 C 8.7834632,8.5626131 8.4279603,8.8168858 7.9999996,8.7849813 v 0.00821 C 7.5720389,8.8250991 7.2165361,8.5708276 6.7999293,8.4108439 l 0.4101804,4.1707711 c 0.031254,0.312021 0.038278,0.353713 0.3109555,0.382351 0.178188,0.02862 0.3149892,0.03947 0.4789344,0.0351 v -0.0082 c 0.1639453,0.0044 0.3007465,-0.0065 0.4789346,-0.0351 0.2726787,-0.02863 0.279702,-0.06959 0.3109554,-0.381605 z"/>
 <path style="fill:#ffffff" d="m 7.5999761,11 c -0.1736469,0.136771 -0.325353,0.778301 -0.4492451,0.978216 l 0.059379,0.603399 c 0.031254,0.312021 0.038278,0.353713 0.3109555,0.382351 0.057785,0.0092 0.1071858,0.01378 0.1586033,0.01941 h 0.3203309 0.2523585 c 0.071595,-0.0059 0.1440307,-0.01437 0.2265761,-0.02763 0.2726787,-0.02863 0.279702,-0.06959 0.3109554,-0.381606 l 0.058598,-0.596678 C 8.7246926,11.777903 8.5734185,11.136574 8.4000231,11 v 1.026352 H 7.9999996 7.5999761 Z"/>
 <path style="fill:#ffffff" d="M 9.2000701,7.9955194 C 9.2000701,7.9955194 8.4331147,8.4987218 8,8.5 7.5668853,8.5012782 6.8014918,8.0044794 6.8014918,8.0044794 6.8478992,8.5418107 7.1517787,9.6469789 7.5999761,10 V 9 h 0.4000235 0.4000235 v 1 C 8.8506724,9.6450469 9.1562538,8.5346688 9.2000701,7.9955194 Z"/>
 <path d="m 10.910696,4 a 1.1119557,1.4364671 0 0 1 0.0893,0.563533 A 1.1119557,1.4364671 0 0 1 9.8880444,6 1.1119557,1.4364671 0 0 1 9,5.4250759 Z" style="fill:#eb6b00"/>
</svg>
